packages/kaspersky-hexa-ui-icons/src/iconsSVGs/16/Ldap.svg

<svg width="16" height="16" viewBox="0 0 16 16" fill="none" xmlns="http://www.w3.org/2000/svg">
<path fill-rule="evenodd" clip-rule="evenodd" d="M2.7293 14.707C1.92848 14.707 1.2793 14.0579 1.2793 13.257L1.2793 2.74297C1.2793 1.94216 1.92848 1.29297 2.7293 1.29297L5.75466 1.29297C6.55547 1.29297 7.20466 1.94216 7.20466 2.74297L7.20466 13.257C7.20466 14.0579 6.55547 14.707 5.75466 14.707H2.7293ZM2.5793 13.257C2.5793 13.3399 2.64645 13.407 2.7293 13.407H5.75466C5.8375 13.407 5.90466 13.3399 5.90466 13.257L5.90466 2.74297C5.90466 2.66013 5.8375 2.59297 5.75466 2.59297L2.7293 2.59297C2.64645 2.59297 2.5793 2.66013 2.5793 2.74297L2.5793 13.257Z" fill="black"/>
<path fill-rule="evenodd" clip-rule="evenodd" d="M10.2457 1.29473C9.44493 1.29473 8.79575 1.94392 8.79575 2.74473V5.77473C8.79575 6.57554 9.44493 7.22473 10.2457 7.22473L13.2711 7.22473C14.0719 7.22473 14.7211 6.57554 14.7211 5.77473V2.74473C14.7211 1.94392 14.0719 1.29473 13.2711 1.29473L10.2457 1.29473ZM10.0957 2.74473C10.0957 2.66189 10.1629 2.59473 10.2457 2.59473L13.2711 2.59473C13.354 2.59473 13.4211 2.66189 13.4211 2.74473V5.77473C13.4211 5.85757 13.354 5.92473 13.2711 5.92473L10.2457 5.92473C10.1629 5.92473 10.0957 5.85757 10.0957 5.77473V2.74473Z" fill="black"/>
<path fill-rule="evenodd" clip-rule="evenodd" d="M8.79575 10.227C8.79575 9.42623 9.44493 8.77704 10.2457 8.77704L13.2711 8.77704C14.0719 8.77704 14.7211 9.42623 14.7211 10.227V13.257C14.7211 14.0579 14.0719 14.707 13.2711 14.707H10.2457C9.44493 14.707 8.79575 14.0579 8.79575 13.257V10.227ZM10.2457 10.077C10.1629 10.077 10.0957 10.1442 10.0957 10.227V13.257C10.0957 13.3399 10.1629 13.407 10.2457 13.407H13.2711C13.354 13.407 13.4211 13.3399 13.4211 13.257V10.227C13.4211 10.1442 13.354 10.077 13.2711 10.077H10.2457Z" fill="black"/>
</svg>

<svg xmlns="http://www.w3.org/2000/svg" width="16" height="16" fill="none" viewBox="0 0 16 16"><path fill="#000" fill-rule="evenodd" d="M2.729 14.707c-.8008 0-1.45-.6492-1.45-1.45V2.743c0-.8008.6492-1.45 1.45-1.45h3.0254c.8008 0 1.45.6492 1.45 1.45v10.514c0 .8008-.6492 1.45-1.45 1.45zm7.5165-13.4123c-.8008 0-1.45.6492-1.45 1.45v3.03c0 .8008.6492 1.45 1.45 1.45h3.0254c.8008 0 1.45-.6492 1.45-1.45v-3.03c0-.8008-.6492-1.45-1.45-1.45zM2.5791 13.257a.15.15 0 0 0 .15.15h3.0253a.15.15 0 0 0 .15-.15V2.743a.15.15 0 0 0-.15-.15H2.729a.15.15 0 0 0-.15.15zm7.5164-10.5123a.15.15 0 0 1 .15-.15h3.0254a.15.15 0 0 1 .15.15v3.03a.15.15 0 0 1-.15.15h-3.0254a.15.15 0 0 1-.15-.15zm.15 6.0323c-.8008 0-1.45.6492-1.45 1.45v3.03c0 .8008.6492 1.45 1.45 1.45h3.0254c.8008 0 1.45-.6492 1.45-1.45v-3.03c0-.8008-.6492-1.45-1.45-1.45zm-.15 1.45a.15.15 0 0 1 .15-.15h3.0254a.15.15 0 0 1 .15.15v3.03a.15.15 0 0 1-.15.15h-3.0254a.15.15 0 0 1-.15-.15z"/></svg>
